src/imagens/sectionProjetos/tCss.svg

<svg width="49" height="17" viewBox="0 0 49 17" fill="none" xmlns="http://www.w3.org/2000/svg">
<path d="M19.6037 16.0329C18.9369 16.0329 18.3924 15.8302 17.9701 15.4249C17.5478 15.0195 17.3366 14.4969 17.3366 13.8569V10.9129H20.5372V12.9609H27.4718V9.56885H19.6037C18.9814 9.56885 18.4479 9.35552 18.0034 8.92885C17.5589 8.50218 17.3366 7.99018 17.3366 7.39285V2.84885C17.3366 2.20885 17.5478 1.68618 17.9701 1.28085C18.3924 0.875518 18.9369 0.672852 19.6037 0.672852H28.4054C29.0722 0.672852 29.6167 0.875518 30.039 1.28085C30.4613 1.68618 30.6725 2.20885 30.6725 2.84885V5.79285H27.4718V3.74485H20.5372V7.13685H28.4054C29.0277 7.13685 29.5611 7.35018 30.0057 7.77685C30.4502 8.20352 30.6725 8.71552 30.6725 9.31285V13.8569C30.6725 14.4969 30.4613 15.0195 30.039 15.4249C29.6167 15.8302 29.0722 16.0329 28.4054 16.0329H19.6037ZM36.9403 16.0329C36.2735 16.0329 35.729 15.8302 35.3067 15.4249C34.8844 15.0195 34.6732 14.4969 34.6732 13.8569V10.9129H37.8738V12.9609H44.8085V9.56885H36.9403C36.318 9.56885 35.7845 9.35552 35.34 8.92885C34.8955 8.50218 34.6732 7.99018 34.6732 7.39285V2.84885C34.6732 2.20885 34.8844 1.68618 35.3067 1.28085C35.729 0.875518 36.2735 0.672852 36.9403 0.672852H45.742C46.4088 0.672852 46.9533 0.875518 47.3756 1.28085C47.7979 1.68618 48.0091 2.20885 48.0091 2.84885V5.79285H44.8085V3.74485H37.8738V7.13685H45.742C46.3643 7.13685 46.8977 7.35018 47.3423 7.77685C47.7868 8.20352 48.0091 8.71552 48.0091 9.31285V13.8569C48.0091 14.4969 47.7979 15.0195 47.3756 15.4249C46.9533 15.8302 46.4088 16.0329 45.742 16.0329H36.9403ZM2.26709 16.0329C1.6003 16.0329 1.05575 15.8302 0.633453 15.4249C0.211151 15.0195 0 14.4969 0 13.8569V2.84885C0 2.20885 0.211151 1.68618 0.633453 1.28085C1.05575 0.875518 1.6003 0.672852 2.26709 0.672852H11.0688C11.7355 0.672852 12.2801 0.875518 12.7024 1.28085C13.1247 1.68618 13.3358 2.20885 13.3358 2.84885V5.79285H10.1352V3.74485H3.2006V12.9609H10.1352V10.9129H13.3358V13.8569C13.3358 14.4969 13.1247 15.0195 12.7024 15.4249C12.2801 15.8302 11.7355 16.0329 11.0688 16.0329H2.26709Z" fill="#808080"/>
</svg>

<svg xmlns="http://www.w3.org/2000/svg" width="49" height="17" fill="none"><path fill="gray" d="M19.604 16.033c-.667 0-1.212-.203-1.634-.608-.422-.405-.633-.928-.633-1.568v-2.944h3.2v2.048h6.935V9.569h-7.868a2.229 2.229 0 0 1-1.6-.64c-.445-.427-.667-.939-.667-1.536V2.849c0-.64.21-1.163.633-1.568.422-.405.967-.608 1.634-.608h8.801c.667 0 1.212.203 1.634.608.422.405.633.928.633 1.568v2.944h-3.2V3.745h-6.935v3.392h7.868a2.23 2.23 0 0 1 1.6.64c.445.427.668.939.668 1.536v4.544c0 .64-.212 1.163-.634 1.568-.422.405-.967.608-1.634.608h-8.801Zm17.336 0c-.666 0-1.211-.203-1.633-.608-.423-.405-.634-.928-.634-1.568v-2.944h3.2v2.048h6.936V9.569H36.94a2.229 2.229 0 0 1-1.6-.64c-.445-.427-.667-.939-.667-1.536V2.849c0-.64.211-1.163.634-1.568.422-.405.966-.608 1.633-.608h8.802c.667 0 1.211.203 1.634.608.422.405.633.928.633 1.568v2.944h-3.2V3.745h-6.935v3.392h7.868a2.23 2.23 0 0 1 1.6.64c.445.427.667.939.667 1.536v4.544c0 .64-.211 1.163-.633 1.568-.423.405-.967.608-1.634.608H36.94Zm-34.673 0c-.667 0-1.211-.203-1.634-.608C.211 15.02 0 14.497 0 13.857V2.849c0-.64.211-1.163.633-1.568C1.056.876 1.6.673 2.267.673h8.802c.666 0 1.211.203 1.633.608.423.405.634.928.634 1.568v2.944h-3.2V3.745H3.2v9.216h6.934v-2.048h3.2v2.944c0 .64-.21 1.163-.633 1.568-.422.405-.966.608-1.633.608H2.267Z"/></svg>
